assets/uswds/img/usa-icons/flooding.svg

<svg xmlns="http://www.w3.org/2000/svg" height="24" viewBox="0 0 24 24" width="24"><path d="M17 18.16a6 6 0 0 0-2.95.8 4.08 4.08 0 0 1-2.05.6 3.81 3.81 0 0 1-2-.56 5.84 5.84 0 0 0-5.9 0 4.05 4.05 0 0 1-2 .6v2a6 6 0 0 0 3-.8 4.05 4.05 0 0 1 1.9-.69 3.87 3.87 0 0 1 2.05.6 5.84 5.84 0 0 0 5.9 0 4.08 4.08 0 0 1 2.05-.6 3.81 3.81 0 0 1 2.05.6 5.9 5.9 0 0 0 2.95.8v-2a3.81 3.81 0 0 1-2-.51 6 6 0 0 0-3-.84Zm3-3.65a6.8 6.8 0 0 0-2-.71V10h3l-9-7-9 7h3v3.8a6.8 6.8 0 0 0-1.95.71 4.15 4.15 0 0 1-2 .6v1.95a6.07 6.07 0 0 0 3-.8 3.8 3.8 0 0 1 4.1 0 5.87 5.87 0 0 0 2.95.8 6 6 0 0 0 2.95-.8 3.8 3.8 0 0 1 4.1 0 5.9 5.9 0 0 0 2.95.8v-1.95a3.81 3.81 0 0 1-2.1-.6Zm-9.95 0V11h4v3.54a4.19 4.19 0 0 1-2 .57 3.8 3.8 0 0 1-2.05-.57Z"/></svg>

<svg xmlns="http://www.w3.org/2000/svg" viewBox="0 0 24 24"><g id="Flooding"><path d="M17,18.16a6,6,0,0,0-2.95.8,4.08,4.08,0,0,1-2.05.6A3.81,3.81,0,0,1,10,19a5.84,5.84,0,0,0-5.9,0,4.05,4.05,0,0,1-2,.6v2a6,6,0,0,0,3-.8A4.05,4.05,0,0,1,7,20.11a3.87,3.87,0,0,1,2.05.6,5.84,5.84,0,0,0,5.9,0,4.08,4.08,0,0,1,2.05-.6,3.81,3.81,0,0,1,2.05.6,5.9,5.9,0,0,0,2.95.8v-2A3.81,3.81,0,0,1,20,19,6,6,0,0,0,17,18.16Z"/><path d="M20,14.51A6.8,6.8,0,0,0,18,13.8V10h3L12,3,3,10H6v3.8a6.8,6.8,0,0,0-1.95.71,4.15,4.15,0,0,1-2,.6v1.95a6.07,6.07,0,0,0,3-.8,3.8,3.8,0,0,1,4.1,0,5.87,5.87,0,0,0,2.95.8,6,6,0,0,0,2.95-.8,3.8,3.8,0,0,1,4.1,0,5.9,5.9,0,0,0,2.95.8V15.11A3.81,3.81,0,0,1,20,14.51Zm-9.95,0V11h4v3.54a4.19,4.19,0,0,1-2,.57A3.8,3.8,0,0,1,10,14.54Z"/></g></svg>
